X:047
%%topmargin 3cm
T:Forester's
B:The Nelson Music Collection
N:Newton F. Tolman & K. Dep. Gilbert
Z:Transcribed by Ralph Palmer
R:Hornpipe
L:1/16
M:2/4
K:D
fg | a^gaf dfba | a^gaf d2cd | eAfA eAfA | edcB A2cd |
a^gaf dfba | a^gaf d2cd | BGFG Adce | d2f2 d2 ::
cd | edcB AGEG | FAdf a2fa | geBg fdAf | edcB A2cd |
edcB AGEG | FAdf afba | gfed cABc | d2f2 d2 :|]

